X: 1328
T: Lezzet Almış Geçmiyor
C: Ahmet Mithat Güpgüpoğlu
O: Turkey
F: http://compmusic.upf.edu/node/140
N: hicazkar--sarki--devrihindi--lezzet_almis--ahmet_mithat_gupgupoglu
N: makam= hicazkar
N: form= sarki
N: usul= devrihindi = 7/4
M: 7/4
L: 1/16
K: C _1/4B _7/8e _7/8A ^f
Q: 1/4=120
%%MIDI tuningsystem comma53
f2 g2 g2 ba gf g4  | g2 a2 g2 gf ef e2 z2  | \
w:  Lez *  zet  al *  *  *  mış   |  geç *  mi yor  *  *  *  sev  | 
fg f2 g2 a3g a3g  | 
w:  dâ *  *  yı  dil *  dar  | 
bc' ba ag g6 z2  | G2 d2 d2 BA Bc d4  | \
w:  dan  *  *  *  gö *  nül   |  SAZ  | 
f2 g2 g2 ba gf g4  | 
w:  Lez *  zet  al *  *  *  mış   | 
g2 a2 g2 gf ef e2 z2  | fg f2 g2 a3g a3g  | \
w:  geç *  mi yor  *  *  *  sev  |  dâ *  *  yı  dil *  dar  | 
bc' ba ag g6 z2  | 
w:  dan  *  *  *  gö *  nül   | 
c2 g2 g2 ed ef g4  | gb a2 g2 g3/2f/ ef g2 z2  | \
w:  SAZ  |  Geç *  *  ti  ay *  *  *  lar   | 
g2 a2 g2 fe ed d4  | 
w:  geç *  ti  yıl *  *  *  lar   | 
d2 e2 e2 e6 z2  | cd c2 d2 d6 z2  | cd c2 B2 Bc BA GF GA  | 
w:  geç *  me di   |  geç *  *  me di   |  geç *  *  me di  *  *  *  yâr  | 
Bc BA AG G6 z2  | c2 g2 g2 ed ef g4  | \
w:  dan  *  *  *  gö *  nül   |  SAZ  | 
gb a2 g2 g3/2f/ ef g2 z2  | 
w:  Geç *  *  ti  ay *  *  *  lar   | 
g2 a2 g2 fe ed d4  | d2 e2 e2 e6 z2  | \
w:  geç *  ti  yıl *  *  *  lar   |  geç *  me di   | 
cd c2 d2 d6 z2  | cd c2 B2 Bc BA GF GA  | 
w:  geç *  *  me di   |  geç *  *  me di  *  *  *  yâr  | 
Bc BA AG G6 z2  | G2 d2 d2 BA Bc d4  | \
w:  dan  *  *  *  gö *  nül   |  SAZ  | 
c2 d2 d2 d4 d4  | 
w:  Var *  mı dır  bir   | 
d2 e2 d2 c4 _B4  | c_B cd B2 cB cd B2 AG  | \
w:  fa *  i de  bu   |  ha *  *  *  le  ıs *  *  *  rar  | 
BA BA GF GA Bc d2 z2  | 
w:  dan  *  *  *  gö *  nül   | 
c2 d2 d2 d4 d4  | d2 e2 d2 d4 ^c4  | \
w:  Var *  mı dır  bir   |  fa *  i de  bu   | 
de fg g2 a3g a3g  | bc' ba ag g6 z2  | 
w:  ha *  *  *  le  ıs *  rar  |  dan  *  *  *  gö *  nül   | 
c2 g2 g2 ed ef g4  | gb a2 g2 g3/2f/ ef g2 z2  | \
w:  SAZ  |  Geç *  *  ti  ay *  *  *  lar   | 
g2 a2 g2 fe ed d4  | 
w:  geç *  ti  yıl *  *  *  lar   | 
d2 e2 e2 e6 z2  | cd c2 d2 d6 z2  | cd c2 B2 Bc BA GF GA  | 
w:  geç *  me di   |  geç *  *  me di   |  geç *  *  me di  *  *  *  yâr  | 
Bc BA AG G6 z2  | |


